X:74
T:Rory O'Moore
M:6/8
L:1/8
K:G
d|dGG BGG|dGG G2e|dcB BAG|FAA ABc|dGG BGG|dGG edc|Bcd def|gGG G2::
g|gfe eBB|cBA G2F|EFG GAB|Bed def|gfe eBB|cBA G2F|EFG GAB|Bed d2:|
%%%newpage
